X:427
T:Battle of the Nile,The.2voices RH.428
R:march
S:Rev.R.Harrison’s MS,c1815,Cumbria
O:England
A:Temple Sowerby,Cumbria
Z:vmp.Simon Wilson. Review PJH, 2008.
V:1 name=”primo”
V:2 name=”secundo”
M:C
L:1/8
Q:2/4=80
K:D
[V:1] A2|d3d e3e|f>ef>g a2d2|g2f>g e2d>d|e>dc>B A3A|
[V:2] z2|F2d2 c2A2|d>cd>e f2d2|Bcd2 AGF>d|c>BA>^G A3A|
%
[V:1] d3d e3e|f>ef>g a2b>a|gfed fedc|d2d’>d’ d’2ff|
[V:2] F2d2 c2A2|d>cd>e f2d2|BAGF AGFE|F2f>f f2dd|
%
[V:1] a2ff a3a|bagf g2e2|g2ee g3g|a>gf>e f>e dA/A/|
[V:2] f2dd f3f|gfed e2c2|e2cc e3e|f>ed>c d>A F A/A/|
%
[V:1] dddd e2ee|f>ef>g a2AA|dddd eeee|f>ef>g a2f2|
[V:2] dcBA GdcA|dcde f2AA|dcBA GdcB|d>cd>e f2d2|
%
[V:1] afaa bagf|e2gf e2AA|d3d e3e|f>ef>ga3e|
[V:2] fdff gfed|c2ed c2AA|F2d2 c2A2|d>cd>e f3d|
%
[V:1] g2f>g e2d2|e>dc>B A>Bc>d|d3d e3e|f>ef>g a2b>a|
[V:2] Bcd2 AGFd|c>BA^G A3=G|F2d2 c2A2|d>cd>e f2d2|
%
[V:1] g>fe>d f>ed>c|d2d’>d’ d’2|]
[V:2] B>AG>F A>GF>E|Fd f>f f2|]

